!!!!SEGMENT: T199_Sch-w16p8h7m1-h8m1.krn
!!!COM: Schoenberg [Schönberg], Arnold (Franz Walter)
!!!OTL: Fünf Orchesterstücke (Five Orchestral Pieces), op. 16
!!!OMV: I: Vorgefühle (Premonitions)
!!!OMD:
!!!AGN: Orchestral; Symphonic
!!!AGN-sub: Symphonic
!!!CNT: Austrian
!!!ODT: 1909
!!!OPR: Fünf Orchesterstücke (Five Orchestral Pieces), op. 16
!!!filename: T199_Sch-w16p8h7m1-h8m1.krn
**kern	**dynam	**kern	**dynam	**kern	**dynam	**kern	**dynam	**kern	**dynam	**kern	**dynam	**kern	**dynam	**kern	**dynam	**kern	**dynam	**kern	**dynam	**kern	**dynam	**kern	**dynam	**kern	**dynam	**kern	**dynam	**kern	**dynam	**kern	**dynam	**kern	**dynam	**kern	**dynam	**kern	**dynam	**kern	**dynam	**kern	**dynam	**kern	**dynam	**kern	**dynam	**kern	**dynam	**kern	**dynam	**kern	**dynam
*grp:A	*	*grp:A	*	*grp:A	*	*grp:A	*	*grp:A	*	*grp:A	*	*grp:A	*	*grp:A	*	*grp:B	*	*grp:A	*	*grp:A	*	*grp:A	*	*grp:A	*	*grp:A	*	*grp:A	*	*grp:A	*	*grp:A	*	*grp:A	*	*grp:A	*	*grp:B	*	*grp:B	*	*grp:B	*	*grp:B	*	*grp:B	*	*grp:B	*	*grp:B	*
*part26	*	*part25	*	*part24	*	*part23	*	*part22	*	*part21	*	*part20	*	*part19	*	*part18	*	*part17	*	*part16	*	*part15	*	*part14	*	*part13	*	*part12	*	*part11	*	*part10	*	*part9	*	*part8	*	*part7	*	*part6	*	*part5	*	*part4	*	*part3	*	*part2	*	*part1	*
*staff26	*	*staff25	*	*staff24	*	*staff23	*	*staff22	*	*staff21	*	*staff20	*	*staff19	*	*staff18	*	*staff17	*	*staff16	*	*staff15	*	*staff14	*	*staff13	*	*staff12	*	*staff11	*	*staff10	*	*staff9	*	*staff8	*	*staff7	*	*staff6	*	*staff5	*	*staff4	*	*staff3	*	*staff2	*	*staff1	*
*ICstr	*	*ICstr	*	*ICstr	*	*ICstr	*	*ICstr	*	*ICstr	*	*ICstr	*	*ICidio	*	*ICidio	*	*ICbras	*	*ICbras	*	*ICbras	*	*ICbras	*	*ICbras	*	*ICbras	*	*ICww	*	*ICww	*	*ICww	*	*ICww	*	*ICww	*	*ICww	*	*ICww	*	*ICww	*	*ICww	*	*ICww	*	*ICww	*
*Icbass	*	*Icello	*	*Icello	*	*Iviola	*	*Iviola	*	*Ivioln	*	*Ivioln	*	*Itimpa	*	*Ixylo	*	*ItubaB	*	*Itromt	*	*Itromp	*	*Itromp	*	*Icor	*	*Icor	*	*Ifag_c	*	*Ifagot	*	*Iclarb	*	*Iclarb	*	*Iclars	*	*Iclars	*	*Icangl	*	*Ioboe	*	*Ioboe	*	*Iflt	*	*Ipicco	*
*I"Contrabass	*	*I"Violoncello III, IV	*	*I"Violoncello I, II	*	*I"Viola	*	*I"Viola	*	*I"Violin II	*	*I"Violin I	*	*I"Timpani	*	*I"Xylophone	*	*I"Bass Tuba	*	*I"Trombone 3, 4	*	*I"Trumpet in Bb 3	*	*I"Trumpet in Bb 1, 2	*	*I"Horn in F 3, 4	*	*I"Horn in F 1, 2	*	*I"Contrabassoon	*	*I"Bassoon 1, 2, 3	*	*I"Contrabass Clarinet in A\n[sounds as written]	*	*I"Bass Clarinet in Bb\n[sounds as written]	*	*I"Clarinet in D	*	*I"Clarinet in A 1, 2	*	*I"English Horn	*	*I"Oboe 3	*	*I"Oboe 1, 2	*	*I"Flute 1, 2	*	*I"Piccolo 1, 2	*
*I'cb	*	*I'vc	*	*I'vc	*	*I'vla	*	*I'vla	*	*I'vn	*	*I'vn	*	*I'timp	*	*I'xyl	*	*I'b-tb	*	*I'tn	*	*I'tp	*	*I'tp	*	*I'cor-fr	*	*I'cor-fr	*	*I'c-bn	*	*I'bn	*	*I'cb-cl	*	*I'b-cl	*	*I'cl	*	*I'cl	*	*I'cor-en	*	*I'ob	*	*I'ob	*	*I'fl	*	*I'picc	*
*clefF4	*	*clefF4	*	*clefF4	*	*clefC3	*	*clefC3	*	*clefG2	*	*clefG2	*	*clefF4	*	*clefG2	*	*clefF4	*	*clefF4	*	*clefG2	*	*clefG2	*	*clefG2	*	*clefG2	*	*clefF4	*	*clefF4	*	*clefF4	*	*clefF4	*	*clefG2	*	*clefG2	*	*clefG2	*	*clefG2	*	*clefG2	*	*clefG2	*	*clefG2	*
*ITrd7c12	*	*	*	*	*	*	*	*	*	*	*	*	*	*	*	*ITrd0c0	*	*	*	*	*	*ITrd1c2	*	*ITrd1c2	*	*ITrd4c7	*	*ITrd4c7	*	*ITrd0c0	*	*	*	*	*	*	*	*ITrd-1c-2	*	*ITrd2c3	*	*ITrd4c7	*	*	*	*	*	*	*	*ITrd-7c-12	*
*k[]	*	*k[]	*	*k[]	*	*k[]	*	*k[]	*	*k[]	*	*k[]	*	*k[]	*	*k[]	*	*k[]	*	*k[]	*	*k[b-e-]	*	*k[]	*	*k[]	*	*k[]	*	*k[]	*	*k[]	*	*k[]	*	*k[]	*	*k[]	*	*k[]	*	*k[]	*	*k[]	*	*k[]	*	*k[]	*	*k[]	*
*C:	*	*C:	*	*C:	*	*C:	*	*C:	*	*C:	*	*C:	*	*C:	*	*C:	*	*C:	*	*C:	*	*B-:	*	*C:	*	*C:	*	*C:	*	*C:	*	*C:	*	*C:	*	*C:	*	*C:	*	*C:	*	*C:	*	*C:	*	*C:	*	*C:	*	*C:	*
!!LO:TX:omd:tempo:a:t=[sehr rasch]\n{[eighth]=180; [eighth]=240}
*M3/8	*	*M4/8	*	*M4/8	*	*M4/8	*	*M4/8	*	*M4/8	*	*M4/8	*	*M3/8	*	*M4/8	*	*M3/8	*	*M4/8	*	*M4/8	*	*M4/8	*	*M3/8	*	*M3/8	*	*M3/8	*	*M3/8	*	*M3/8	*	*M3/8	*	*M4/8	*	*M3/8	*	*M3/8	*	*M3/8	*	*M3/8	*	*M4/8	*	*M4/8	*
*rscale:1/2	*	*	*	*	*	*	*	*	*	*	*	*	*	*rscale:1/2	*	*	*	*rscale:1/2	*	*	*	*	*	*	*	*	*	*	*	*rscale:1/2	*	*rscale:1/2	*	*rscale:1/2	*	*rscale:1/2	*	*	*	*X-tuplet	*	*	*	*	*	*	*	*	*	*	*
*Xtuplet	*	*	*	*	*	*	*	*	*	*	*	*	*	*Xtuplet	*	*	*	*Xtuplet	*	*	*	*	*	*	*	*	*	*	*	*Xtuplet	*	*Xtuplet	*	*Xtuplet	*	*Xtuplet	*	*	*	*	*	*	*	*	*	*	*	*	*	*	*
!!LO:REH:t=7
=	=	=	=	=	=	=	=	=	=	=	=	=	=	=	=	=	=	=	=	=	=	=	=	=	=	=	=	=	=	=	=	=	=	=	=	=	=	=	=	=	=	=	=	=	=	=	=	=	=	=	=
*^	*	*	*	*	*	*	*	*	*	*	*	*	*	*	*	*	*	*	*	*	*	*	*	*	*	*	*	*	*	*	*	*	*	*	*	*	*	*	*	*	*	*	*	*	*	*	*	*	*	*	*
!	!	!	!	!	!	!	!	!	!	!	!	!	!	!	!	!	!	!	!	!	!	!	!	!	!	!	!	!	!	!	!	!	!	!	!	!	!	!	!	!	!	!	!	!	!	!	!	!	!	!	!LO:TX:t=[half] / [quarter-dot]=68	!
!LO:TX:b:t=pizz. Das tiefe d muß dabei sein!	!LO:TX:t=pizz.	!	!LO:TX:a:t=der 2. Sp. pizz.	!	!LO:TX:a:t=der 1. Sp. arco	!	!LO:TX:a:t=der 1. Sp. arco	!	!	!	!	!LO:DY:ed=brack	!LO:TX:t=[half] / [quarter-dot]=68	!	!LO:TX:a:t=hart	!	!	!	!LO:TX:a:t=mit Dämpfer, so stark wie möglich	!	!	!LO:DY:ed=brack	!	!LO:DY:ed=brack	!	!LO:DY:ed=brack	!	!	!	!	!	!	!	!	!	!	!	!	!	!LO:DY:ed=brack	!	!	!	!	!	!	!	!	!	!LO:DY:ed=brack	!LO:TX:a:t=II.	!LO:DY:ed=brack
6DD	6DDD	ff	8EEnL	ff	8D	ff	8r	.	8ee-XL	ff	8c	ff	8eee-XL	ff	6D	f	8eee-X	f	[3.DDD^	fff	[2D] [2G#X]	pp	[2B-]	pp	(([2f] [2eeX])	pp	2r	.	2r	.	[3.DD^	f	[3.DD]^ [3.AA] [3.C#X])	f	[3.DDD^	f	[3.DD^	f	[2B-X	pp	2r	.	2r	.	2r	.	2r	.	[2f [2ee	pp	[2eee	pp
.	.	.	8AA-X	.	8AA-XL	.	8DL	ff	8f	.	8r	.	8ff	.	.	.	8r	.	.	.	.	.	.	.	.	.	.	.	.	.	.	.	.	.	.	.	.	.	.	.	.	.	.	.	.	.	.	.	.	.	.	.
*v	*v	*	*	*	*	*	*	*	*	*	*	*	*	*	*	*	*	*	*	*	*	*	*	*	*	*	*	*	*	*	*	*	*	*	*	*	*	*	*	*	*	*	*	*	*	*	*	*	*	*	*	*
6r	.	.	.	.	.	.	.	.	.	.	.	.	.	6r	.	.	.	.	.	.	.	.	.	.	.	.	.	.	.	.	.	.	.	.	.	.	.	.	.	.	.	.	.	.	.	.	.	.	.	.	.
.	.	8BB-XJ	.	8C	.	(8En^	.	8g	.	4r	.	8gg	.	.	.	4r	.	.	.	.	.	.	.	.	.	.	.	.	.	.	.	.	.	.	.	.	.	.	.	.	.	.	.	.	.	.	.	.	.	.	.
6r	.	.	.	.	.	.	.	.	.	.	.	.	.	6r	.	.	.	.	.	.	.	.	.	.	.	.	.	.	.	.	.	.	.	.	.	.	.	.	.	.	.	.	.	.	.	.	.	.	.	.	.
.	.	8EEnL	.	8DJ	.	8GJ)	.	8b-XJ	.	.	.	8bb-XJ	.	.	.	.	.	.	.	.	.	.	.	.	.	.	.	.	.	.	.	.	.	.	.	.	.	.	.	.	.	.	.	.	.	.	.	.	.	.	.
=	=	=	=	=	=	=	=	=	=	=	=	=	=	=	=	=	=	=	=	=	=	=	=	=	=	=	=	=	=	=	=	=	=	=	=	=	=	=	=	=	=	=	=	=	=	=	=	=	=	=	=
3.r	.	8AA-X	.	8AA-XL	.	8CL	.	(8ddL	.	4r	.	(8dddL	.	3.r	.	2r	.	6DDD]	.	2D_ 2G#_	.	2B-_	<	2f_ 2ee_)	<	2r	.	2r	.	6DD]	.	3.DD^_ 3.AA_ 3.C#_))	.	6DDD]	.	6DD]	.	2B-_	<	2r	.	2r	.	2r	.	2r	.	2f_ 2ee_	<	2eee_	<
.	.	8BB-XJ	.	8C	.	8E-X	.	8ff#XJ)	.	.	.	8fff#XJ)	.	.	.	.	.	.	.	.	.	.	.	.	.	.	.	.	.	.	.	.	.	.	.	.	.	.	.	.	.	.	.	.	.	.	.	.	.	.	.
.	.	.	.	.	.	.	.	.	.	.	.	.	.	.	.	.	.	6r	.	.	.	.	.	.	.	.	.	.	.	6r	.	.	.	6r	.	6r	.	.	.	.	.	.	.	.	.	.	.	.	.	.	.
!	!	!	!	!	!	!	!	!	!	!LO:TX:a:t=alle arco	!	!	!	!	!	!	!	!	!	!	!	!	!	!	!	!	!	!	!	!	!	!	!	!	!	!	!	!	!	!	!	!	!	!	!	!	!	!	!	!	!
.	.	8EEnL	.	8DJ	.	8FnJ	.	8ee-XL	.	8ee-XL	ff	8eee-XL	.	.	.	.	.	.	.	.	.	.	.	.	.	.	.	.	.	.	.	.	.	.	.	.	.	.	.	.	.	.	.	.	.	.	.	.	.	.	.
.	.	.	.	.	.	.	.	.	.	.	.	.	.	.	.	.	.	6r	.	.	.	.	.	.	.	.	.	.	.	6r	.	.	.	6r	.	6r	.	.	.	.	.	.	.	.	.	.	.	.	.	.	.
.	.	8AA-X	.	8AA-XL	.	8r	.	8fnJ	.	8fJ	.	8ffnJ	.	.	.	.	.	.	.	.	.	.	.	.	.	.	.	.	.	.	.	.	.	.	.	.	.	.	.	.	.	.	.	.	.	.	.	.	.	.	.
*	*	*	*	*	*	*clefG2	*	*clefG2	*	*	*	*	*	*	*	*	*	*	*	*	*	*	*	*	*	*	*	*	*	*	*	*	*	*	*	*	*	*	*	*	*	*	*	*	*	*	*	*	*	*	*
=	=	=	=	=	=	=	=	=	=	=	=	=	=	=	=	=	=	=	=	=	=	=	=	=	=	=	=	=	=	=	=	=	=	=	=	=	=	=	=	=	=	=	=	=	=	=	=	=	=	=	=
!	!	!	!	!	!	!LO:TX:a:t=alle arco	!	!	!	!	!	!	!	!	!	!	!	!	!	!	!	!	!	!	!	!	!	!	!	!	!	!	!	!	!	!	!	!	!	!	!	!	!	!	!	!	!	!	!	!	!
3.r	.	8BB-XJ	.	8C	.	8r	.	8gL	.	8gL	.	8ggL	.	3.r	.	2r	.	2r	.	2D_ 2G#_	.	2B-_	.	2f_ 2ee_	.	2r	.	2r	.	2r	.	3.DD^_ 3.AA_ 3.C#_	.	3.r	.	3.r	.	2B-_	.	2r	.	2r	.	2r	.	2r	.	2f_ 2ee_	[	2eee_	[
.	.	8EEL	.	8DJ	.	8b-XL	.	8b-X	.	8b-X	.	8bb-X	.	.	.	.	.	.	.	.	.	.	.	.	.	.	.	.	.	.	.	.	.	.	.	.	.	.	.	.	.	.	.	.	.	.	.	.	.	.	.
.	.	8AA-X	.	8AA-XL	.	8dd	.	8dd	.	8dd	.	8ddd	.	.	.	.	.	.	.	.	.	.	.	.	.	.	.	.	.	.	.	.	.	.	.	.	.	.	.	.	.	.	.	.	.	.	.	.	.	.	.
.	.	8BB-XJ	.	8C	.	8ff#XJ	.	8ff#XJ	.	8ff#XJ	.	8fff#XJ	.	.	.	.	.	.	.	.	.	.	.	.	[[	.	.	.	.	.	.	.	.	.	.	.	.	.	[[	.	.	.	.	.	.	.	.	.	.	.	.
=	=	=	=	=	=	=	=	=	=	=	=	=	=	=	=	=	=	=	=	=	=	=	=	=	=	=	=	=	=	=	=	=	=	=	=	=	=	=	=	=	=	=	=	=	=	=	=	=	=	=	=
*	*	*	*	*	*	*	*	*	*	*	*	*	*	*	*	*Xtuplet	*	*	*	*	*	*	*	*	*	*	*	*	*	*	*	*	*	*	*	*	*	*Xtuplet	*	*Xtuplet	*	*	*	*	*	*Xtuplet	*	*Xtuplet	*	*Xtuplet	*
3.r	.	8EEL	.	8DJ	.	(8ggL	.	(8ggL	.	(8ggL	.	(8gggL	.	3.r	.	6r	.	2r	.	2D_ 2G#_	>	8B-]	f	8f] 8ee]	f	4r	.	4r	.	2r	.	3.DD^_ 3.AA_ 3.C#_	.	3.r	.	3.r	.	6B-]	f	6r	.	2r	.	2r	.	6r	.	6f] 6ee]	.	6eee]	.
.	.	8AA-X	.	8AA-XL	.	8bbnvJ)	.	8bbnvJ)	.	8bbnvJ)	.	8bbbnvJ)	.	.	.	.	.	.	.	.	.	8r	.	8r	.	.	.	.	.	.	.	.	.	.	.	.	.	.	.	.	.	.	.	.	.	.	.	.	.	.	.
*	*	*	*	*	*	*	*	*	*	*	*	*	*	*	*	*	*	*	*	*	*	*	*	*	*	*	*	*	*	*	*	*	*	*	*	*	*	*	*	*haupt	*	*	*	*	*	*	*	*	*	*	*
.	.	.	.	.	.	.	.	.	.	.	.	.	.	.	.	6r	.	.	.	.	.	.	.	.	.	.	.	.	.	.	.	.	.	.	.	.	.	6r	.	6r	.	.	.	.	.	6r	.	6r	.	6r	.
*	*	*	*	*	*	*	*	*	*	*	*	*	*	*	*	*	*	*	*	*	*	*	*	*	*	*^	*	*^	*	*	*	*	*	*	*	*	*	*	*	*	*	*	*	*	*	*	*	*	*	*	*
!	!	!	!	!	!	!	!	!	!	!	!	!	!	!	!	!	!	!	!	!	!	!	!	!	!	!LO:TX:a:t=mit Dämpfer	!	!	!LO:TX:a:t=mit Dämpfer	!	!	!	!	!	!	!	!	!	!	!	!	!	!	!	!	!	!	!	!	!	!	!	!
.	.	8BB-XJ	.	8C	.	8bb-XL	ff	8bb-XL	ff	8bb-XL	ff	8bbb-XL	ff	.	.	.	.	.	.	.	.	4r	.	4r	.	4g-X^	4g-^	ff	4g-X^	4g-^	ff	.	.	.	.	.	.	.	.	.	.	.	.	.	.	.	.	.	.	.	.	.	.
.	.	.	.	.	.	.	.	.	.	.	.	.	.	.	.	6b-X	.	.	.	.	.	.	.	.	.	.	.	.	.	.	.	.	.	.	.	.	.	.	.	6r	.	(24cc#LLL 24aa	ff	.	.	.	.	(24cc#XLLL> 24aa	ff	(24ccc#XLLL 24aaan	ff	(24dddd-XLLL 24aaaa	ff
.	.	8EEL	.	8DJ	.	8eenJ	.	8eenJ	.	8eenJ	.	8eeenJ	.	.	.	.	.	.	.	.	.	.	.	.	.	.	.	.	.	.	.	.	.	.	.	.	.	.	.	.	.	24ccX 24ee-X	.	.	.	.	.	24ccn 24ee-X	.	24cccn 24eee-X	.	24ccccn 24eeee-X	.
.	.	.	.	.	.	.	.	.	.	.	.	.	.	.	.	.	.	.	.	.	.	.	.	.	.	.	.	.	.	.	.	.	.	.	.	.	.	.	.	.	.	24f# 24dd	.	.	.	.	.	24f#X 24dd	.	24ff#X 24ddd	.	24ggg-X 24ddddn	.
.	.	.	.	.	.	.	.	.	.	.	.	.	.	.	.	.	.	.	.	.	.	.	.	.	.	.	.	.	.	.	.	.	.	.	.	.	.	.	.	.	.	24c#JJJ 24a	.	.	.	.	.	24c#XJJJ 24a	.	24cc#XJJJ 24aa	.	24ddd-XJJJ 24aaan	.
*	*	*	*	*	*	*clefC3	*	*clefC3	*	*	*	*	*	*	*	*	*	*	*	*	*	*	*	*	*	*	*	*	*	*	*	*	*	*	*	*	*	*	*	*	*	*	*	*	*	*	*	*	*	*	*	*	*
=	=	=	=	=	=	=	=	=	=	=	=	=	=	=	=	=	=	=	=	=	=	=	=	=	=	=	=	=	=	=	=	=	=	=	=	=	=	=	=	=	=	=	=	=	=	=	=	=	=	=	=	=	=
3.r	.	8AA-X	.	8AA-XL	.	8bnL	.	8bnL	.	8bbnL	.	8bbnL	.	3.r	.	6bn	.	2r	.	2D_ 2G#_	.	2r	.	2r	.	4A-X^	4A-^	.	4A-X^	4A-^	.	2r	.	3.DD^_ 3.AA_ 3.C#_	>	3.r	.	3.r	.	2r	.	3cX 3gX)	.	2r	.	2r	.	3cn 3gn)	.	3ccn 3ggn)	.	3cccn 3gggn)	.
.	.	8BB-XJ	.	8C	.	8fnJ	.	8fnJ	.	8ffnJ	.	8ffnJ	.	.	.	.	.	.	.	.	.	.	.	.	.	.	.	.	.	.	.	.	.	.	.	.	.	.	.	.	.	.	.	.	.	.	.	.	.	.	.	.	.
.	.	.	.	.	.	.	.	.	.	.	.	.	.	.	.	6r	.	.	.	.	.	.	.	.	.	.	.	.	.	.	.	.	.	.	.	.	.	.	.	.	.	.	.	.	.	.	.	.	.	.	.	.	.
.	.	8EEL	.	8DJ	.	8enL	.	8enL	.	8eenL	.	8eenL	.	.	.	.	.	.	.	.	.	.	.	.	.	4c^	4c^	.	4c^	4c^	.	.	.	.	.	.	.	.	.	.	.	.	.	.	.	.	.	.	.	.	.	.	.
.	.	.	.	.	.	.	.	.	.	.	.	.	.	.	.	6ccn	.	.	.	.	.	.	.	.	.	.	.	.	.	.	.	.	.	.	.	.	.	.	.	.	.	(24dd-XLLL 24ffX	.	.	.	.	.	(24dd-XLLL 24ffn	.	(24ddd-XLLL 24fffn	.	(24dddd-XLLL 24ffff	.
.	.	8AA-X	.	8AA-L	.	8cJ	.	8cJ	.	8ccJ	.	8ccJ	.	.	.	.	.	.	.	.	.	.	.	.	.	.	.	.	.	.	.	.	.	.	.	.	.	.	.	.	.	24gX 24ee	.	.	.	.	.	24gn 24een	.	24ggn 24eeen	.	24gggn 24eeeen	.
.	.	.	.	.	.	.	.	.	.	.	.	.	.	.	.	.	.	.	.	.	.	.	.	.	.	.	.	.	.	.	.	.	.	.	.	.	.	.	.	.	.	24f# 24b-X	.	.	.	.	.	24g-X 24b-X	.	24gg-X 24bb-X	.	24ggg-X 24bbb-X	.
.	.	.	.	.	.	.	.	.	.	.	.	.	.	.	.	.	.	.	.	.	]]	.	.	.	.	.	.	.	.	.	.	.	.	.	.	.	.	.	.	.	.	24c#JJJ 24fX	.	.	.	.	.	24d-XJJJ 24f	.	24dd-XJJJ 24ffn	.	24ddd-XJJJ 24fff	.
*	*	*	*	*	*	*	*	*	*	*	*	*	*	*	*	*	*	*	*	*	*	*	*	*	*	*v	*v	*	*	*	*	*	*	*	*	*	*	*	*	*	*	*	*	*	*	*	*	*	*	*	*	*	*
*	*	*	*	*	*	*	*	*	*	*	*	*	*	*	*	*	*	*	*	*	*	*	*	*	*	*	*	*v	*v	*	*	*	*	*	*	*	*	*	*	*	*	*	*	*	*	*	*	*	*	*	*	*
=	=	=	=	=	=	=	=	=	=	=	=	=	=	=	=	=	=	=	=	=	=	=	=	=	=	=	=	=	=	=	=	=	=	=	=	=	=	=	=	=	=	=	=	=	=	=	=	=	=	=	=
*	*	*	*	*	*	*	*	*	*	*	*	*	*	*	*	*	*	*	*	*	*	*	*	*	*	*	*	*	*	*	*	*	*	*	*	*k[]	*	*	*	*	*	*	*	*	*	*	*	*	*	*	*
*	*	*	*	*	*	*	*	*	*	*	*	*	*	*	*	*	*	*	*	*	*	*	*	*	*	*	*	*	*	*	*	*	*	*	*	*C:	*	*	*	*	*	*	*	*	*	*	*	*	*	*	*
*	*	*	*	*	*	*	*	*	*	*	*	*	*	*	*	*	*	*	*	*	*	*	*	*	*	*^	*	*^	*	*	*	*	*	*	*	*	*	*	*	*	*	*	*	*	*	*	*	*	*	*	*
3.r	.	8BB-XJ	.	8C	.	(8F#XL	.	(8F#XL	.	(8f#XL	.	(8f#XL	.	3.r	.	6cc#X	.	2r	.	8D] 8G#]	.	2r	.	2r	.	2d^	2d^	.	2d^	2d^	.	2r	.	3.DD^_ 3.AA_ 3.C#_	.	3.r	.	3.r	.	2r	.	3B 3d#X)	.	2r	.	2r	.	3c-X 3e-X)	.	3cc-X 3ee-X)	.	3ccc-X 3eee-X)	.
.	.	8EEL	.	8DJ	.	8C#XJ)	.	8C#XJ)	.	8c#XJ)	.	8c#XJ)	.	.	.	.	.	.	.	8r	.	.	.	.	.	.	.	.	.	.	.	.	.	.	.	.	.	.	.	.	.	.	.	.	.	.	.	.	.	.	.	.	.
.	.	.	.	.	.	.	.	.	.	.	.	.	.	.	.	6r	.	.	.	.	.	.	.	.	.	.	.	.	.	.	.	.	.	.	.	.	.	.	.	.	.	.	.	.	.	.	.	.	.	.	.	.	.
.	.	8AA-X	>	8AA-XL	>	4r	.	4r	.	8cnL	>	8cnL	>	.	.	.	.	.	.	4r	.	.	.	.	.	.	.	.	.	.	.	.	.	.	.	.	.	.	.	.	.	.	.	.	.	.	.	.	.	.	.	.	.
.	.	.	.	.	.	.	.	.	.	.	.	.	.	.	.	12ddLL	.	.	.	.	.	.	.	.	.	.	.	.	.	.	.	.	.	.	.	.	.	.	.	.	.	6r	.	.	.	.	.	6r	.	(24ff#XLLL 24dddn	.	(24fff#XLLL 24ddddn	.
.	.	8BB-XJ	.	8C	.	.	.	.	.	8GJ	.	8GJ	.	.	.	.	.	.	.	.	.	.	.	.	.	.	.	.	.	.	.	.	.	.	.	.	.	.	.	.	.	.	.	.	.	.	.	.	.	24ffn 24aa-X	.	24fffn 24aaa-X	.
.	.	.	.	.	.	.	.	.	.	.	.	.	.	.	.	12dd#XJJ	.	.	.	.	.	.	.	.	.	.	.	.	.	.	.	.	.	.	.	.	.	.	.	.	.	.	.	.	.	.	.	.	.	24bn 24ggn	.	24bbn 24gggn	.
.	.	.	.	.	.	.	.	.	.	.	.	.	.	.	.	.	.	.	.	.	.	.	.	.	.	.	.	.	.	.	.	.	.	.	.	.	.	.	.	.	.	.	.	.	.	.	.	.	.	24f#XJJJ 24ddn	.	24ff#XJJJ 24dddn	.
*	*	*	*	*	*	*	*	*	*	*	*	*	*	*	*	*	*	*	*	*	*	*	*	*	*	*v	*v	*	*	*	*	*	*	*	*	*	*	*	*	*	*	*	*	*	*	*	*	*	*	*	*	*	*
*	*	*	*	*	*	*	*	*	*	*	*	*	*	*	*	*	*	*	*	*	*	*	*	*	*	*	*	*v	*v	*	*	*	*	*	*	*	*	*	*	*	*	*	*	*	*	*	*	*	*	*	*	*
!!LO:REH:t=8
=	=	=	=	=	=	=	=	=	=	=	=	=	=	=	=	=	=	=	=	=	=	=	=	=	=	=	=	=	=	=	=	=	=	=	=	=	=	=	=	=	=	=	=	=	=	=	=	=	=	=	=
*grp:A	*	*grp:A	*	*grp:A	*	*grp:A	*	*grp:A	*	*grp:A	*	*grp:A	*	*grp:A	*	*grp:B	*	*grp:A	*	*grp:A	*	*grp:A	*	*grp:A	*	*grp:B	*	*grp:B	*	*grp:A	*	*grp:A	*	*grp:A	*	*grp:A	*	*grp:B	*	*grp:B	*	*grp:B	*	*grp:B	*	*grp:B	*	*grp:B	*	*grp:B	*
*	*	*	*	*	*	*	*	*	*	*	*	*	*	*	*	*	*	*	*	*	*	*	*	*	*	*Xtuplet	*	*Xtuplet	*	*	*	*	*	*	*	*	*	*Xtuplet	*	*Xtuplet	*	*Xtuplet	*	*Xtuplet	*	*Xtuplet	*	*	*	*	*
*	*	*	*	*	*	*	*	*	*	*	*	*	*	*	*	*	*	*	*	*	*	*	*	*	*	*haupt	*	*haupt	*	*	*	*	*	*	*	*	*	*haupt	*	*haupt	*	*haupt	*	*haupt	*	*haupt	*	*	*	*	*
!	!	!	!	!	!	!	!	!	!	!	!	!	!	!	!	!	!	!	!	!	!	!	!	!	!	!LO:TX:a:t=II. IV.	!	!LO:TX:a:t=zu 2 I. III.	!	!	!	!	!	!	!	!	!	!	!	!	!	!	!	!	!	!	!	!	!	!	!
3.r	.	8EEL	.	8DJ	.	2r	.	2r	.	(8AL	.	(8AL	]pp>	3.r	.	6ee	.	2r	.	2r	.	2r	.	2r	.	6..r^	.	6..r^	.	2r	.	3.DD^_ 3.AA_ 3.C#_	.	3.r	.	3.r	.	12.r	.	12.r	.	12.r	.	12.r	.	12.r	.	3en 3ccn)	.	3een 3cccn)	.
*	*	*	*	*	*	*	*	*	*	*	*	*	*	*	*	*	*	*	*	*	*	*	*	*	*	*	*	*	*	*	*	*	*	*	*	*	*	*	*	*^	*	*	*	*	*	*^	*	*	*	*	*
.	.	8AA-X	.	8AA-XL	.	.	.	.	.	8c#XJ)	.	8c#XJ)	.	.	.	.	.	.	.	.	.	.	.	.	.	.	.	.	.	.	.	.	.	.	.	.	.	24ff#	f	24ff#	24ee	f	24a	f	24a	f	24ff#X	24een	f	.	.	.	.
.	.	.	.	.	.	.	.	.	.	.	.	.	.	.	.	6r	.	.	.	.	.	.	.	.	.	.	.	.	.	.	.	.	.	.	.	.	.	3gg	.	3ggX	6..ee-XL	.	6..a-XL	.	6..a-XL	.	3gg	6..ee-XL	.	.	.	.	.
.	.	8BB-X	.	8C	.	.	.	.	.	8GnL	.	4r	]	.	.	.	.	.	.	.	.	.	.	.	.	.	.	.	.	.	.	.	.	.	.	.	.	.	.	.	.	.	.	.	.	.	.	.	.	.	.	.	.
.	.	.	.	.	.	.	.	.	.	.	.	.	.	.	.	.	.	.	.	.	.	.	.	.	.	24D 24A	f	24BX	f	.	.	.	.	.	.	.	.	.	.	.	.	.	.	.	.	.	.	.	.	.	.	.	.
.	.	.	.	.	.	.	.	.	.	.	.	.	.	.	.	6r	.	.	.	.	.	.	.	.	.	[6D-X [6A-X	.	[6c	.	.	.	.	.	.	.	.	.	.	.	.	.	.	.	.	.	.	.	.	.	6r	.	6r	.
.	.	8EEJ	]	8DJ	.	.	.	.	.	8AJ	.	.	.	.	.	.	.	.	.	.	.	.	.	.	.	.	.	.	.	.	.	.	.	.	.	.	.	.	.	.	.	.	.	.	.	.	.	.	.	.	.	.	.
.	.	.	.	.	]]	.	.	.	.	.	]]	.	.	.	.	.	.	.	.	.	.	.	.	.	.	.	.	.	.	.	.	.	]]	.	.	.	.	.	.	.	24dd-XJkk	.	24g-XJkk	.	24g-XJkk	.	.	24dd-XJkk	.	.	.	.	.
*	*	*	*	*	*	*	*	*	*	*	*	*	*	*	*	*	*	*	*	*	*	*	*	*	*	*	*	*	*	*	*	*	*	*	*	*	*	*	*	*v	*v	*	*	*	*	*	*v	*v	*	*	*	*	*
=	=	=	=	=	=	=	=	=	=	=	=	=	=	=	=	=	=	=	=	=	=	=	=	=	=	=	=	=	=	=	=	=	=	=	=	=	=	=	=	=	=	=	=	=	=	=	=	=	=	=	=
*-	*-	*-	*-	*-	*-	*-	*-	*-	*-	*-	*-	*-	*-	*-	*-	*-	*-	*-	*-	*-	*-	*-	*-	*-	*-	*-	*-	*-	*-	*-	*-	*-	*-	*-	*-	*-	*-	*-	*-	*-	*-	*-	*-	*-	*-	*-	*-	*-	*-	*-	*-
!!!system-decoration: [s1,s2,s3,s4,s5,s6,s7,s8,s9,s10,s11],[s12,s13],[s14,s15,s16,s17],[s18],[s19],[s20,s21,s22,s23,s24,s25,s26]
!!!RDF**kern: > = above
!!!RDF**kern: < = below
!!!EED2: Rafael Laurindo
!!!Suter_Work_ID: Sch-16
!!!Suter_Example_Number: 199
!!!Suter_Example_ID: Sch-16/8/[7]1-[8]1
!!!Premiere_Location: London,England
!!!Other_Tsigs: {4/8};3/8
!!!Full_Unit_Duration: 2:14
!!!First_Publication_Year: 1912
!!!First_Public_Performance_Year: 1912
!!!Example_Total_Measures: 7
!!!Example_Timestamp_Duration: 7
!!!Example_Start_Tsig_Type: changing
!!!Example_Start_Tsig_Mean_Beat_Rate: 210
!!!Example_Start_Tsig_Beat_Rate: 180;240
!!!Example_Start_Tsig_Beat: eighth;eighth
!!!Example_Start_Tsig: 3/8;(4/8)
!!!Example_Start_Timestamp: 1:00
!!!Example_Start_Tempo_Expression: [sehr rasch]
!!!Example_Start_Notated_Beat_Rate: {180};{240}
!!!Example_Start_Notated_Beat: {eighth};{eighth}
!!!Example_Start_Measure: 57
!!!Example_Metadata_Validated: Y
!!!Example_End_Timestamp: 1:07
!!!Example_End_Measure: 63
!!!Example_Dataset: T
!!!Editorial_Comments: No notated tempo. Example Start Notated Beat and Example Start Notated Beat Rate {eighth;eighth=180;240} calculated from recording (https://ubc-nml3-naxosmusiclibrary-com.eu1.proxy.openathens.net/catalogue/item.asp?cid=5099945756252); tempo for audio synthesis {measure=68} was calculated using a Digital Audio Workstation (DAW). Example Start Tempo Expression [sehr rasch] based on most recent notated tempo expression (SWFU m. 26).
!!!Death_Place: Los Angeles,United States
!!!Death_Date: 13-Jul-1951
!!!Changing_Tsig: yes
!!!Birth_Place: Vienna,Austria
!!!Birth_Date: 13-Sep-1874
!!!Audio_Example_Quarter_Note_Tempo:
!!!Audio_Example_Duration:
!!!EEV2: 2022/03/27
